X:10696
T:Merrily Kissed the Quaker's Wife
M:6/8
L:1/8
R:Slide or Jig
K:G maj
|:D|GAB D2B|c2A BGE|GAB DEG|~A3AGE|GABD2B|c2A BGE|GAB DEG|GAG G2:|:A
|BGG AGG|BGG AGE|GAB DEG|~A3AGA|BGG AGG|BGG AGE|GAB DEF|GAGG2:|:d|~
g3aga|bge dBd|~g3gab|~a3agf|~g3fgf|efe dBA|GAB DEF|GAGG2:|
